assets/buy.svg

<svg fill="none" height="40" viewBox="0 0 40 40" width="40" xmlns="http://www.w3.org/2000/svg" xmlns:xlink="http://www.w3.org/1999/xlink"><clipPath id="a"><path d="m0 0h40v40h-40z"/></clipPath><clipPath id="b"><path d="m9.18359 10h22.0967v22.0967h-22.0967z"/></clipPath><mask id="c" height="40" maskUnits="userSpaceOnUse" width="40" x="0" y="0"><path d="m40 0h-40v40h40z" fill="#fff"/></mask><g clip-path="url(#a)"><g mask="url(#c)"><path d="m40 20c0-11.0457-8.9543-20-20-20s-20 8.9543-20 20 8.9543 20 20 20 20-8.9543 20-20z" fill="#f55d3e"/><g clip-path="url(#b)"><path d="m17.4698 28.6438c0 .2731-.0809.5402-.2327.7673-.1517.2271-.3674.4041-.6198.5086-.2523.1045-.53.1319-.7979.0786s-.514-.1848-.7071-.378c-.1932-.1931-.3247-.4392-.378-.7071s-.0259-.5456.0786-.7979c.1045-.2524.2815-.468.5086-.6198.2272-.1517.4942-.2327.7673-.2327.3663 0 .7176.1455.9766.4045.2589.259.4044.6102.4044.9765zm7.5958-1.381c-.2732 0-.5402.081-.7673.2327-.2271.1518-.4041.3674-.5086.6198-.1046.2523-.1319.53-.0786.7979s.1848.514.3779.7071c.1932.1932.4393.3247.7072.378s.5455.0259.7979-.0786c.2523-.1045.468-.2815.6198-.5086.1517-.2271.2327-.4942.2327-.7673 0-.3663-.1455-.7175-.4045-.9765s-.6102-.4045-.9765-.4045zm4.1129-10.8455-2.4626 8.0022c-.129.4242-.3912.7956-.7479 1.059s-.7888.4048-1.2321.4032h-8.2958c-.4497-.0017-.8868-.149-1.2458-.4199-.3589-.2709-.6205-.6508-.7455-1.0828l-3.1229-10.9267h-1.45179c-.18313 0-.35877-.0727-.48827-.2022s-.20225-.3052-.20225-.4883.07275-.3588.20225-.4883.30514-.2022.48827-.2022h1.45179c.2999.001.5914.0991.8308.2796.2395.1805.4141.4336.4976.7216l.7 2.4514h15.1639c.108 0 .2146.0253.3111.0739.0965.0487.1802.1193.2444.2062.0643.0869.1072.1876.1254.2942.0182.1065.0111.2158-.0206.3191zm-1.5951.4876h-13.8346l2.0275 7.0951c.0413.1443.1284.2711.2481.3614.1198.0904.2657.1392.4157.1393h8.2958c.1477 0 .2916-.0473.4104-.1351.1189-.0878.2065-.2114.2499-.3526z" fill="#fff"/></g></g></g></svg>

<svg width="40" height="40" viewBox="0 0 40 40" fill="none" xmlns="http://www.w3.org/2000/svg">
<g clip-path="url(#clip0_34360_12)">
<mask id="mask0_34360_12" style="mask-type:luminance" maskUnits="userSpaceOnUse" x="0" y="0" width="40" height="40">
<path d="M40 0H0V40H40V0Z" fill="white"/>
</mask>
<g mask="url(#mask0_34360_12)">
<path d="M40 20C40 8.9543 31.0457 0 20 0C8.9543 0 0 8.9543 0 20C0 31.0457 8.9543 40 20 40C31.0457 40 40 31.0457 40 20Z" fill="#F55D3E"/>
<g clip-path="url(#clip1_34360_12)">
<path d="M17.4698 28.6438C17.4698 28.9169 17.3889 29.184 17.2371 29.4111C17.0854 29.6382 16.8697 29.8152 16.6173 29.9197C16.365 30.0242 16.0873 30.0516 15.8194 29.9983C15.5515 29.945 15.3054 29.8135 15.1123 29.6203C14.9191 29.4272 14.7876 29.1811 14.7343 28.9132C14.681 28.6453 14.7084 28.3676 14.8129 28.1153C14.9174 27.8629 15.0944 27.6473 15.3215 27.4955C15.5487 27.3438 15.8157 27.2628 16.0888 27.2628C16.4551 27.2628 16.8064 27.4083 17.0654 27.6673C17.3243 27.9263 17.4698 28.2775 17.4698 28.6438ZM25.0656 27.2628C24.7924 27.2628 24.5254 27.3438 24.2983 27.4955C24.0712 27.6473 23.8942 27.8629 23.7897 28.1153C23.6851 28.3676 23.6578 28.6453 23.7111 28.9132C23.7644 29.1811 23.8959 29.4272 24.089 29.6203C24.2822 29.8135 24.5283 29.945 24.7962 29.9983C25.0641 30.0516 25.3417 30.0242 25.5941 29.9197C25.8464 29.8152 26.0621 29.6382 26.2139 29.4111C26.3656 29.184 26.4466 28.9169 26.4466 28.6438C26.4466 28.2775 26.3011 27.9263 26.0421 27.6673C25.7831 27.4083 25.4319 27.2628 25.0656 27.2628ZM29.1785 16.4173L26.7159 24.4195C26.5869 24.8437 26.3247 25.2151 25.968 25.4785C25.6113 25.7419 25.1792 25.8833 24.7359 25.8817H16.4401C15.9904 25.88 15.5533 25.7327 15.1943 25.4618C14.8354 25.1909 14.5738 24.811 14.4488 24.379L11.3259 13.4523H9.87411C9.69098 13.4523 9.51534 13.3796 9.38584 13.2501C9.25634 13.1206 9.18359 12.9449 9.18359 12.7618C9.18359 12.5787 9.25634 12.403 9.38584 12.2735C9.51534 12.144 9.69098 12.0713 9.87411 12.0713H11.3259C11.6258 12.0723 11.9173 12.1704 12.1567 12.3509C12.3962 12.5314 12.5708 12.7845 12.6543 13.0725L13.3543 15.5239H28.5182C28.6262 15.5239 28.7328 15.5492 28.8293 15.5978C28.9258 15.6465 29.0095 15.7171 29.0737 15.804C29.138 15.8909 29.1809 15.9916 29.1991 16.0982C29.2173 16.2047 29.2102 16.314 29.1785 16.4173ZM27.5834 16.9049H13.7488L15.7763 24C15.8176 24.1443 15.9047 24.2711 16.0244 24.3614C16.1442 24.4518 16.2901 24.5006 16.4401 24.5007H24.7359C24.8836 24.5007 25.0275 24.4534 25.1463 24.3656C25.2652 24.2778 25.3528 24.1542 25.3962 24.013L27.5834 16.9049Z" fill="white"/>
</g>
</g>
</g>
<defs>
<clipPath id="clip0_34360_12">
<rect width="40" height="40" fill="white"/>
</clipPath>
<clipPath id="clip1_34360_12">
<rect width="22.0967" height="22.0967" fill="white" transform="translate(9.18359 10)"/>
</clipPath>
</defs>
</svg>
